app/dist/common/images/petro-matad-ltd.svg

<svg height="18" viewBox="0 0 18 18" width="18" xmlns="http://www.w3.org/2000/svg"><path d="m0 0h18v18h-18z" fill="#f0f3fa"/><g fill="#170e45"><path d="m4 12h-1v-6h5.5v4.5h-4v-3h2v1h-.97v1h1.97v-2.5h-3.5z"/><path d="m4.5 11v1h6v-5h.5v5h2.5v-5h.5v5h1v-6h-2.5v5h-.5v-5h-2.5v5z"/></g></svg>

<!-- by TradingView --><svg width="18" height="18" viewBox="0 0 18 18" xmlns="http://www.w3.org/2000/svg"><path fill="#F0F3FA" d="M0 0h18v18H0z"/><path d="M4 12H3V6h5.5v4.5h-4v-3h2v1h-.97v1H7.5V7H4v5Z" fill="#170E45"/><path d="M4.5 11v1h6V7h.5v5h2.5V7h.5v5h1V6h-2.5v5H12V6H9.5v5h-5Z" fill="#170E45"/></svg>
